X: 287
T: Green Man Hornpipe
M:3/2
L:1/8
C:Ravenscroft
S: 8: MCJLSH3 http://www.cpartington.plus.com/links/Walsh.abc
Z: Pete Stewart 2004
B: Walsh "Third Book of the most Celebrated jiggs, Lancashire hornpipes, ..."
K:G
g4 d3cB4 | edcB AGFED4 | dcBA GFEDC4 | AGFE DCB,A,G,4 |
G,B,A,G, A,CB,A, B,DCB, | CEDC DFEGF4 | GBAB AcBA BdcB | cedf egfag4 ||
b4a3gf4 | g2ba gfed^c4 | dBAG Fd^cB AGFE | F2d2E2^c2d4 |
GBdc BAG=F F2E2 | Aced cBAGG2^F2 | gdcB ecBA dBAG | cABGD2F2G4 ||

%%sep 1 1 500
%%sep 1 1 500
